static/images/uploads/self-managed--icon.svg

<svg height="60" viewBox="0 0 67 60" width="67" xmlns="http://www.w3.org/2000/svg"><path d="m1230.95217 24.0472781h-3.32826c-1.13348-3.3549219-3.06743-6.4209865-5.65722-8.9627824v-5.15381734c0-.13837561-.0568-.26946143-.16009-.36656549-.10328-.09710406-.24529-.15293657-.38988-.15293657h-7.67617c-.85725-.39326988-1.74028-.75253315-2.63368-1.06568986l-.01291-.00242993c-.67389-3.16071384-2.87125-5.8505429-5.94899-7.27550225-3.07516-1.42502149-6.68203-1.42259778-9.7603.00242993-3.07516 1.4250215-5.27251 4.1123647-5.9464 7.27550225-.04648.00242372-.09295.0097073-.13943.02184453-9.52499 3.37679753-16.15083 10.82718033-17.33799 19.47674383l-3.74138 2.6800721c-.13685.099534-.21947.2500406-.21947.410267 0 .16265.08004.3155866.21689.4126907l3.89109 2.8184725c.82625 4.6124583 3.12686 8.8801274 6.5971 12.2329364v11.0819844c0 .1383757.05938.2694615.16266.3665655.10328.0971041.24272.1529366.38989.1529366h12.1974c.14718 0 .2866-.0558344.38988-.1529366s.16009-.2281961.16009-.3665655v-3.7919399c4.14413 1.07545 8.47928 1.3303132 12.73479.7525363v3.0417652-.0024274c0 .1383756.05681.2694614.16266.3665655.10329.097104.24272.1529365.38731.1529365h12.24896c.14459 0 .2866-.0558343.38988-.1529365s.16009-.2281961.16009-.3665655v-8.081543c4.4772-2.9835339 7.81828-7.2413217 9.53027-12.1428238h3.33341c.54481.0048536 1.06897-.1966381 1.45367-.5583499.3847-.3617119.59903-.8545158.59387-1.366728v-9.4046447c-.01549-1.0487239-.93214-1.891121-2.04758-1.8789403zm-30.68486-23.01102087c2.62595 0 5.146.97831175 7.00989 2.71891367 1.86163 1.74302564 2.91513 4.10751726 2.9306 6.576353.01549 2.4713216-1.01212 4.8455081-2.85313 6.6055619-.01034.0097073-.01291.0218446-.02066.0291281l-.00259.00243c-4.53405-1.6920654-9.58447-1.6944892-14.11826-.0072836-1.85648-1.7551442-2.89444-4.1293307-2.88929-6.6055619.00517-2.47374536 1.05608-4.84550813 2.92029-6.59313262 1.86422-1.74787307 4.38943-2.72860854 7.02311-2.72618482zm31.63009 34.29497877c.00516.2379033-.09295.4660994-.27112.6360082-.17816.1675038-.42345.2573242-.67389.2524706h-3.73873c-.24272 0-.45702.1505128-.52673.3689954-1.62665 4.9207677-4.95749 9.1858887-9.4655 12.1185867-.14718.097104-.23238.2549004-.23496.4248279v7.8317118h-11.14377v-3.129203c0-.1529366-.0723-.2985958-.19624-.3981298-.12394-.097104-.28919-.1383756-.44927-.1140949-4.53405.7185365-9.18193.4369652-13.58153-.8180978-.16784-.0485552-.34857-.0194208-.48801.0776832-.13943.099534-.22205.2524706-.22205.4175506v3.9642668h-11.0975v-10.7762176c0-.1359457-.05681-.2670377-.16009-.3641418-3.44697-3.2675438-5.71657-7.4718855-6.48346-12.019152-.02324-.1335158-.09812-.2524706-.20915-.3325838l-3.49609-2.5319767 3.35404-2.4033332c.11878-.0849669.19624-.211199.21172-.3495746 1.04055-8.2294526 7.25314-15.3495883 16.24602-18.6874821-.02582.29131218-.04648.5850543-.04648.8860862v-.0024299c-.00516 2.6023888 1.03797 5.1077046 2.91772 7.0157294-1.19291.521932-2.32123 1.1676725-3.36435 1.9251152-.11361.0849668-.18849.2087753-.20656.344721-.01808.1359456.02065.2743213.11102.3811326.09038.1092413.22206.179641.36665.1966381.14718.0169909.29177-.0218508.40796-.1068114 3.1139-2.2115488 6.90942-3.4059443 10.81063-3.4059443 3.90141 0 7.69732 1.1968192 10.81063 3.408368.24271.1747873.58612.1310921.77204-.0946741.18591-.2281961.14201-.55349-.10069-.7258723-1.04313-.7501094-2.17152-1.393451-3.36178-1.9177818 1.88233-1.9105108 2.92545-4.4182503 2.92287-7.0207012 0-.2913122-.02065-.57534081-.04648-.86178691.71262.26703772 1.42009.55349001 2.10436.87148171l-.00258.00243c.07746.0364117.16008.0534025.24529.0534025h7.25577v4.8430844c0 .1359457.05423.2646078.15493.3617119 2.63884 2.5441574 4.58052 5.6514873 5.66237 9.0572452.06714.2209125.28403.3714254.52932.3714254h3.73874c.24529-.0072774.48284.0776832.661.2354796.17815.1602202.28143.378709.28402.6093288z" fill="#fff" fill-rule="evenodd" stroke="#fff" stroke-width=".1" transform="translate(-1167 1)"/></svg>

<?xml version="1.0" encoding="UTF-8"?>
<svg width="67px" height="60px" viewBox="0 0 67 60" version="1.1" xmlns="http://www.w3.org/2000/svg" xmlns:xlink="http://www.w3.org/1999/xlink">
    <!-- Generator: Sketch 49.1 (51147) - http://www.bohemiancoding.com/sketch -->
    <title>Fill 2</title>
    <desc>Created with Sketch.</desc>
    <defs></defs>
    <g id="Design" stroke="none" stroke-width="1" fill="none" fill-rule="evenodd">
        <g id="HOME-V4" transform="translate(-1167.000000, -1778.000000)" fill="#FFFFFF" stroke="#FFFFFF" stroke-width="0.1">
            <g id="Group" transform="translate(0.000000, 1779.000000)">
                <path d="M1230.95217,24.0472781 L1227.62391,24.0472781 C1226.49043,20.6923562 1224.55648,17.6262916 1221.96669,15.0844957 L1221.96669,9.93067836 C1221.96669,9.79230275 1221.90989,9.66121693 1221.8066,9.56411287 C1221.70332,9.46700881 1221.56131,9.4111763 1221.41672,9.4111763 L1213.74055,9.4111763 C1212.8833,9.01790642 1212.00027,8.65864315 1211.10687,8.34548644 L1211.09396,8.34305651 C1210.42007,5.18234267 1208.22271,2.49251361 1205.14497,1.06755426 C1202.06981,-0.357467234 1198.46294,-0.355043517 1195.38467,1.06998419 C1192.30951,2.49500569 1190.11216,5.18234889 1189.43827,8.34548644 C1189.39179,8.34791016 1189.34532,8.35519374 1189.29884,8.36733097 C1179.77385,11.7441285 1173.14801,19.1945113 1171.96085,27.8440748 L1168.21947,30.5241469 C1168.08262,30.6236809 1168,30.7741875 1168,30.9344139 C1168,31.0970639 1168.08004,31.2500005 1168.21689,31.3471046 L1172.10798,34.1655771 C1172.93423,38.7780354 1175.23484,43.0457045 1178.70508,46.3985135 L1178.70508,57.4804979 C1178.70508,57.6188736 1178.76446,57.7499594 1178.86774,57.8470634 C1178.97102,57.9441675 1179.11046,58 1179.25763,58 L1191.45503,58 C1191.60221,58 1191.74163,57.9441656 1191.84491,57.8470634 C1191.94819,57.7499612 1192.005,57.6188673 1192.005,57.4804979 L1192.005,53.688558 C1196.14913,54.764008 1200.48428,55.0188712 1204.73979,54.4410943 L1204.73979,57.4828595 L1204.73979,57.4804321 C1204.73979,57.6188077 1204.7966,57.7498935 1204.90245,57.8469976 C1205.00574,57.9441016 1205.14517,57.9999341 1205.28976,57.9999341 L1217.53872,57.9999341 C1217.68331,57.9999341 1217.82532,57.9440998 1217.9286,57.8469976 C1218.03188,57.7498954 1218.08869,57.6188015 1218.08869,57.4804321 L1218.08869,49.3988891 C1222.56589,46.4153552 1225.90697,42.1575674 1227.61896,37.2560653 L1230.95237,37.2560653 C1231.49718,37.2609189 1232.02134,37.0594272 1232.40604,36.6977154 C1232.79074,36.3360035 1233.00507,35.8431996 1232.99991,35.3309874 L1232.99991,25.9263427 C1232.98442,24.8776188 1232.06777,24.0352217 1230.95233,24.0474024 L1230.95217,24.0472781 Z M1200.26731,1.03625723 C1202.89326,1.03625723 1205.41331,2.01456898 1207.2772,3.7551709 C1209.13883,5.49819654 1210.19233,7.86268816 1210.2078,10.3315239 C1210.22329,12.8028455 1209.19568,15.177032 1207.35467,16.9370858 C1207.34433,16.9467931 1207.34176,16.9589304 1207.33401,16.9662139 L1207.33142,16.9686439 C1202.79737,15.2765785 1197.74695,15.2741547 1193.21316,16.9613603 C1191.35668,15.2062161 1190.31872,12.8320296 1190.32387,10.3557984 C1190.32904,7.88205304 1191.37995,5.51029027 1193.24416,3.76266578 C1195.10838,2.01479271 1197.63359,1.03405724 1200.26727,1.03648096 L1200.26731,1.03625723 Z M1231.8974,35.331236 C1231.90256,35.5691393 1231.80445,35.7973354 1231.62628,35.9672442 C1231.44812,36.134748 1231.20283,36.2245684 1230.95239,36.2197148 L1227.21366,36.2197148 C1226.97094,36.2197148 1226.75664,36.3702276 1226.68693,36.5887102 C1225.06028,41.5094779 1221.72944,45.7745989 1217.22143,48.7072969 C1217.07425,48.8044009 1216.98905,48.9621973 1216.98647,49.1321248 L1216.98647,56.9638366 L1205.8427,56.9638366 L1205.8427,53.8346336 C1205.8427,53.681697 1205.7704,53.5360378 1205.64646,53.4365038 C1205.52252,53.3393998 1205.35727,53.2981282 1205.19719,53.3224089 C1200.66314,54.0409454 1196.01526,53.7593741 1191.61566,52.5043111 C1191.44782,52.4557559 1191.26709,52.4848903 1191.12765,52.5819943 C1190.98822,52.6815283 1190.9056,52.8344649 1190.9056,52.9995449 L1190.9056,56.9638117 L1179.8081,56.9638117 L1179.8081,46.1875941 C1179.8081,46.0516484 1179.75129,45.9205564 1179.64801,45.8234523 C1176.20104,42.5559085 1173.93144,38.3515668 1173.16455,33.8043003 C1173.14131,33.6707845 1173.06643,33.5518297 1172.9554,33.4717165 L1169.45931,30.9397398 L1172.81335,28.5364066 C1172.93213,28.4514397 1173.00959,28.3252076 1173.02507,28.186832 C1174.06562,19.9573794 1180.27821,12.8372437 1189.27109,9.4993499 C1189.24527,9.79066208 1189.22461,10.0844042 1189.22461,10.3854361 L1189.22461,10.3830062 C1189.21945,12.985395 1190.26258,15.4907108 1192.14233,17.3987356 C1190.94942,17.9206676 1189.8211,18.5664081 1188.77798,19.3238508 C1188.66437,19.4088176 1188.58949,19.5326261 1188.57142,19.6685718 C1188.55334,19.8045174 1188.59207,19.9428931 1188.68244,20.0497044 C1188.77282,20.1589457 1188.9045,20.2293454 1189.04909,20.2463425 C1189.19627,20.2633334 1189.34086,20.2244917 1189.45705,20.1395311 C1192.57095,17.9279823 1196.36647,16.7335868 1200.26768,16.7335868 C1204.16909,16.7335868 1207.965,17.930406 1211.07831,20.1419548 C1211.32102,20.3167421 1211.66443,20.2730469 1211.85035,20.0472807 C1212.03626,19.8190846 1211.99236,19.4937907 1211.74966,19.3214084 C1210.70653,18.571299 1209.57814,17.9279574 1208.38788,17.4036266 C1210.27021,15.4931158 1211.31333,12.9853763 1211.31075,10.3829254 C1211.31075,10.0916132 1211.2901,9.80758459 1211.26427,9.52113849 C1211.97689,9.78817621 1212.68436,10.0746285 1213.36863,10.3926202 L1213.36605,10.3950502 C1213.44351,10.4314619 1213.52613,10.4484527 1213.61134,10.4484527 L1220.86711,10.4484527 L1220.86711,15.2915371 C1220.86711,15.4274828 1220.92134,15.5561449 1221.02204,15.653249 C1223.66088,18.1974064 1225.60256,21.3047363 1226.68441,24.7104942 C1226.75155,24.9314067 1226.96844,25.0819196 1227.21373,25.0819196 L1230.95247,25.0819196 C1231.19776,25.0746422 1231.43531,25.1596028 1231.61347,25.3173992 C1231.79162,25.4776194 1231.8949,25.6961082 1231.89749,25.926728 L1231.8974,35.331236 Z" id="Fill-2"></path>
            </g>
        </g>
    </g>
</svg>
